X: 230
T:Joc Batrinesc
F: http://www.youtube.com/watch?v=tLkdRZZS_rE
F: http://www.youtube.com/watch?v=d255-FAvgq0
O:Romania
M:2/4
L:1/8
Q:1/4=60
K:ADor
|:"Am"A>G A>B |c3/2d/2 "G"B/2A/2B/2G/2     |"Am"c>d e2|"Dm"d3/2c/2 "G"B/2A/2B/2G/2|
  "Am"A>G A>B |c3/2d/2 "G"B/2A/2B/2G/2     |"Am"A4-  |A4                        :|
|:"C"g2"Am"a2|"C"g3/2=f/2 "Am"e/2d/2e/2c/2|e2"Dm"dc |"G"B3/2A/2 Bd              |
  "Am"A>G A>B |c3/2d/2 "G"B/2A/2B/2G/2     |"Am"A4-  |A4                        :|



